X:1
T:Bass Rock, The
M:4/4
L:1/8
R:reel
K:Amaj
A3 e fAec | Ba (3aaa fbaf | e2 af ecAB | cABc AF (3FFF |
A3 e fAec | Ba (3aaa fbaf | eafe c3 e | [1 fecB AEFG :| [2 fecB ABce ||
a3 e fa af | b3 c' bafe | a3 e fgaf | ecBc A2 (3FFF |
[1 a3 e fa af | b3 c' bafe | a2 (3eee fgaf | ecBc ABce :|
[2 ABce fa af | b3 c' bafe | c'bac' bafc | e2 fc ecBc ||
